X: 1
T:The Plains of Boyle
M:C|
L:1/8
Q:80
C:Arr. by T. Tully
S:Hornpipe
K:HP
|: {g}c/2d/2|
{gef}e/2c/2{G}A/2B/2{gcd}c/2B/2{G}A/2{d}c/2|
{g}e/2A/2{g}d/2f/2{gef}e/2c/2{G}A/2{d}c/2|  !
a/2g/2{a}e/2g/2{a}f/2e/2{g}d/2f/2|
{gef}e/2d/2B/2c/2{gdedc}d{g}c/2d/2{gef}e/2c/2{G}A/2B/2{gcd}c/2B/2{G}A/2{
d}c/2|
{g}e/2A/2{g}d/2f/2{gef}e/2c/2{G}A/2{d}c/2|  !
a/2{g}a/2{g}a/2e/2{g}f/2e/2{gde}d/2B/2|
{gcecG}c{G}A{gAGAG}A:| |:
e|  !
a/2g/2a/2e/2{g}f/2e/2{g}c/2d/2|
{g}e/2A/2{g}d/2f/2{gef}e/2d/2{g}c/2d/2|
{g}e/2a/2{cd}c/2e/2{g}f/2e/2{g}c/2d/2|  !
{g}e/2a/2{cd}c/2e/2{g}f/2e/2{gcd}c/2e/2a/2g/2a/2e/2{g}f/2e/2{g}c/2d/2|
{g}e/2A/2{g}d/2f/2{gef}e/2d/2{g}c/2d/2|
e/2{g}e/2{A}e/2c/2{gdedc}d{g}e/2d/2|  !
{gcecG}c{G}A{gAGAG}A:|
